X:1
T:9 Crimes
T:9 crimes
T:Damien Rice
C:Damien Rice
Z:All Rights Reserved
%%score 1 { 2 | 3 }
L:1/8
M:4/4
K:C
V:1 treble nm="Voice"
%%MIDI program 52
%%MIDI control 7 100
%%MIDI control 10 64
V:2 treble nm="Piano"
%%MIDI program 0
%%MIDI control 7 100
%%MIDI control 10 64
L:1/4
V:3 bass 
%%MIDI channel 2
%%MIDI program 0
%%MIDI control 7 100
%%MIDI control 10 64
V:1
 z8 | z8 | z8 | z8 | z4 z ABc- | cAB c2 ABc- | cdc B2 ABc- | cAB c2 ABc- | cdc B2 cde- | %9
w: ||||Leave me out|* with the waste this is not|* what I do. It's the wrong|* kind of place to be think-|* king of you It's the wrong|
w: ||||* * 2.|* with the waste this is not|* what I do. It's the wrong|* kind of place to be cheat-|* ing on you. It's the wrong|
 e z2 e2 z2 c | efe d2 cde- | e z2 e2 z2 c/d/ | efe d2 z g/gg/ | g c2- c z4 | z2 ee/e-e/d/dd/d/c/ | %15
w: * time, for|some- bo- dy new It's a small|* crime, and I've|got no ex- cuse Is that al-|right yeah? *|Give my gun * a- way when it's *|
w: * time, she's|pull- ing me through It's a small|* crime and I've|got no ex- cuse * * *|||
 de g/gg-g/ c2 z | z/ z c/ee/e-e/d/dd/d/c/ | de g/gg-g/ c2 z | z2 ee/e-e/d/dd/d/c/ | %19
w: loa- ded. Is that all- right yeah?|If you don't shoot how am I sup- posed to|hold it? Is that all right yeah?|Give my gun * a- way when it's *|
w: ||||
 de g/gg-g/ c2 z | z2 c B2 ABc :| %21
w: loa- ded Is that all- right yeah?|With you? 2.Leave me out|
w: ||
V:2
 z2 z A,/B,/ | C z z2 | z4 | z4 | z4 | z4 | z4 | z4 | z4 | z4 | z4 | z4 | z4 | z4 | z4 | z4 | z4 | %17
 z4 | z4 | z4 | z4 :| %21
V:3
 z8 |"Am" A,,E,A,B,"F" F,,C,F,G, |"C" C,,G,,C,E,"G" G,,D,G,A, |"Am" A,,E,B,C"F" F,,C,F,G, | %4
"C" C,,G,,C,E,"G" G,,D,G,A, |"Am" A,,E,B,C"F" F,,C,F,G, |"C" C,,G,,C,E,"G" G,,D,G,A, | %7
"Am" A,,E,B,C"F" F,,C,F,G, |"C" C,,G,,C,E,"G" G,,D,G,A, |"Am" A,,E,B,C"F" F,,C,F,G, | %10
"C" C,,G,,C,E,"G" G,,D,G,A, |"Am" A,,E,B,C"F" F,,C,F,G, |"C" C,,G,,C,E,"G" G,,D,G,A, | %13
"Am" A,,E,B,C"F" F,,C,F,G, |"C" C,,G,,C,E,"G" G,,D,G,A, |"Am" A,,E,B,C"F" F,,C,F,G, | %16
"C" C,,G,,C,E,"G" G,,D,G,A, |"Am" A,,E,B,C"F" F,,C,F,G, |"C" C,,G,,C,E,"G" G,,D,G,A, | %19
"Am" A,,E,B,C"F" F,,C,F,G, |"C" C,,G,,C,E,"G" G,,D,G,A, :| %21

